data/unifrakturcook.svg

<svg width="79.933" height="18.32" viewBox="0 0 79.933 18.32" xmlns="http://www.w3.org/2000/svg"><path transform="translate(0 14.424) scale(.0068359 -.0068359)" d="m1152 31q-140 88-280 178 28 95 45 198l-340-376q-86 76-218 135t-282 111q199 133 249 305 14 47 14 96 0 131-104.5 286t-104.5 292q0 216 270 370 52-30 108-60-158-108-158-197 0-22 11-43 50-105 294-184 0-10 0-20 0-313-186-627 160-102 236-102 72 0 231 193 6 90 6 223t-17 328q1 9 1 17 0 45-41 73.5t-85 62.5l239 264q106-67 289-175-65-87-73.5-171t-8.5-173l-6-390q0-18 0-34 0-123 27.5-190t97.5-94z"/><path transform="translate(9.6113 14.424) scale(.0068359 -.0068359)" d="m404 934 117 146 319-231-30-118-13-322q0-3 0-6 0-49 30-80.5t68-47.5l-200-244q-74 58-113.5 103t-39.5 185q0 10 0 21l7 370q0 42-128 140l-40-63-19-378q0-3 0-6 0-49 30-80.5t69-47.5l-200-244-211 171q57 69 57 138l8 454q0 48-74 96l151 190z"/><path transform="translate(15.962 14.424) scale(.0068359 -.0068359)" d="m29 890 151 190 224-105q-12-41-26-80t-14-80l-14-406q0-5 0-9 0-47 30-78t69-47l-200-244-212 171q58 69 58 138l7 454q0 48-73 96zm30 199 80 395 297-119z"/><path transform="translate(19.175 14.424) scale(.0068359 -.0068359)" d="m586 1202q-75 45-176 57-18-27-53-77 19-41 29-101h163v-252h-148q0-94-3.5-190.5t-5.5-180.5q-5-190-275-853-37 37-82 49 69 246 82.5 529.5t13.5 471.5-4 336q-2 81-81 145 86 91 157.5 180t157.5 181q93-11 198.5-32t206.5-41q-45-57-90-112t-90-110z"/><path transform="translate(22.969 14.424) scale(.0068359 -.0068359)" d="m395 934 130 132q201-139 272-282l-160-214q-27 79-73.5 139t-154.5 123l-33-45-19-341q-3-52 66-108t107-72l-166-235-310 241q56 67 58 138l-2 384q-3 48-74 96l151 190z"/><path transform="translate(28.513 14.424) scale(.0068359 -.0068359)" d="m37 759 390 317 442-207q-78-68-79-153l-4-331q0-34 35.5-77t67.5-69l-202-208-155 159q-56-45-113-82.5t-102-78.5q-150 56-280 173 37 47 43 137l-3 302q0 4 0 8 0 59-40 110zm343 77q-58-87-58-155v-245q0-75 27-107 23-33 42.5-59t62.5-38l82 59v460z"/><path transform="translate(34.815 14.424) scale(.0068359 -.0068359)" d="m546 259q-172-190-222-244-174 132-294 225 109 96 111 204l3 275h-94l95 180 1 150q0 65-5.5 155t-44.5 152l330 179q-25-103-30-234l160 160 195-246-237-280h198l-113-216h-210l-3-282q0-75 13-93t147-85zm-155 921q-1-39-1-78v-167h49l112 131q-20 131-104 161z"/><path transform="translate(39.676 14.424) scale(.0068359 -.0068359)" d="m535 275-223-244q-73 56-147 112.5t-146 112.5q109 96 111 204l4 415h-87v79q136 195 344 505l51-8q-23-109-40.5-179.5t-21.5-175.5h176v-216h-179l-2-426q0-75 13.5-85t146.5-94z"/><path transform="translate(43.641 14.424) scale(.0068359 -.0068359)" d="m520 890 151 190 224-105q-11-41-25.5-80t-14.5-80l-14-406q0-3 0-6 0-49 30-80.5t69-47.5l-200-244-218 190-260-190-211 171q58 69 58 138l7 454q0 48-74 96l152 190 223-105q-11-41-25.5-80t-14.5-80l-13-406q-2-48 36-101 12-15 32-15 50 0 155 91l7 410q0 48-74 96z"/><path transform="translate(50.333 14.424) scale(.0068359 -.0068359)" d="m395 934 130 132q201-139 272-282l-160-214q-27 79-73.5 139t-154.5 123l-33-45-19-341q-3-52 66-108t107-72l-166-235-310 241q56 67 58 138l-2 384q-3 48-74 96l151 190z"/><path transform="translate(55.877 14.424) scale(.0068359 -.0068359)" d="m1009 1087q-114 97-232 135-7-94-7-237t31-330l-316-141q80-83 213-125 73-23 157.5-23t173.5 15l-174-366q-291 95-460 184.5t-252.5 210.5-100.5 292q-11 107-11 219.5t4 208.5l822 405 240-174zm-512 125q-165-79-165-290 0-191 94-335 64 42 79 167 6 49 6 152.5t-14 305.5z"/><path transform="translate(63.26 14.424) scale(.0068359 -.0068359)" d="m80 801q233 156 387 283 77-33 155-118 169-181 200-378 4-23 4-44 0-66-37-107l-332-423-428 211q68 141 68 244l-2 233q-3 72-15 99zm269 35-3-425q9-49 69-76.5t79.5-27.5 26.5 2q88 20 88 111 0 21-5 47-34 165-98.5 249.5t-156.5 119.5z"/><path transform="translate(69.166 14.424) scale(.0068359 -.0068359)" d="m80 801q233 156 387 283 77-33 155-118 169-181 200-378 4-23 4-44 0-66-37-107l-332-423-428 211q68 141 68 244l-2 233q-3 72-15 99zm269 35-3-425q9-49 69-76.5t79.5-27.5 26.5 2q88 20 88 111 0 21-5 47-34 165-98.5 249.5t-156.5 119.5z"/><path transform="translate(75.072 14.424) scale(.0068359 -.0068359)" d="m546 259q-172-190-222-244-174 132-294 225 109 96 111 204l3 275h-94l95 180 1 150q0 65-5.5 155t-44.5 152l330 179q-25-103-30-234l160 160 195-246-237-280h198l-113-216h-210l-3-282q0-75 13-93t147-85zm-155 921q-1-39-1-78v-167h49l112 131q-20 131-104 161z"/></svg>

<?xml version="1.0" encoding="utf-8" ?>
<svg baseProfile="tiny" height="100%" version="1.2" width="100%" xmlns="http://www.w3.org/2000/svg" xmlns:ev="http://www.w3.org/2001/xml-events" xmlns:xlink="http://www.w3.org/1999/xlink"><defs /><g><path d="M1152 31Q1012 119 872 209Q900 304 917 407L577 31Q491 107 359.0 166.0Q227 225 77 277Q276 410 326 582Q340 629 340 678Q340 809 235.5 964.0Q131 1119 131 1256Q131 1472 401 1626Q453 1596 509 1566Q351 1458 351 1369Q351 1347 362 1326Q412 1221 656 1142Q656 1132 656 1122Q656 809 470 495Q630 393 706 393Q778 393 937 586Q943 676 943.0 809.0Q943 942 926 1137Q927 1146 927 1154Q927 1199 886.0 1227.5Q845 1256 801 1290L1040 1554Q1146 1487 1329 1379Q1264 1292 1255.5 1208.0Q1247 1124 1247 1035L1241 645Q1241 627 1241 611Q1241 488 1268.5 421.0Q1296 354 1366 327Z" transform="translate(0.0, 72) scale(0.03515625, -0.03515625)" /><path d="M404 934 521 1080 840 849 810 731 797 409Q797 406 797 403Q797 354 827.0 322.5Q857 291 895 275L695 31Q621 89 581.5 134.0Q542 179 542 319Q542 329 542 340L549 710Q549 752 421 850L381 787L362 409Q362 406 362 403Q362 354 392.0 322.5Q422 291 461 275L261 31L50 202Q107 271 107 340L115 794Q115 842 41 890L192 1080Z" transform="translate(49.4296875, 72) scale(0.03515625, -0.03515625)" /><path d="M29 890 180 1080 404 975Q392 934 378.0 895.0Q364 856 364 815L350 409Q350 404 350 400Q350 353 380.0 322.0Q410 291 449 275L249 31L37 202Q95 271 95 340L102 794Q102 842 29 890ZM59 1089 139 1484 436 1365Z" transform="translate(82.08984375, 72) scale(0.03515625, -0.03515625)" /><path d="M586 1202Q511 1247 410 1259Q392 1232 357 1182Q376 1141 386 1081H549V829H401Q401 735 397.5 638.5Q394 542 392 458Q387 268 117 -395Q80 -358 35 -346Q104 -100 117.5 183.5Q131 467 131.0 655.0Q131 843 127 991Q125 1072 46 1136Q132 1227 203.5 1316.0Q275 1405 361 1497Q454 1486 559.5 1465.0Q665 1444 766 1424Q721 1367 676.0 1312.0Q631 1257 586 1202Z" transform="translate(98.61328125, 72) scale(0.03515625, -0.03515625)" /><path d="M395 934 525 1066Q726 927 797 784L637 570Q610 649 563.5 709.0Q517 769 409 832L376 787L357 446Q354 394 423.0 338.0Q492 282 530 266L364 31L54 272Q110 339 112 410L110 794Q107 842 36 890L187 1080Z" transform="translate(118.125, 72) scale(0.03515625, -0.03515625)" /><path d="M37 759 427 1076 869 869Q791 801 790 716L786 385Q786 351 821.5 308.0Q857 265 889 239L687 31L532 190Q476 145 419.0 107.5Q362 70 317 29Q167 85 37 202Q74 249 80 339L77 641Q77 645 77 649Q77 708 37 759ZM380 836Q322 749 322 681V436Q322 361 349 329Q372 296 391.5 270.0Q411 244 454 232L536 291V751Z" transform="translate(146.63671875, 72) scale(0.03515625, -0.03515625)" /><path d="M546 259Q374 69 324 15Q150 147 30 240Q139 336 141 444L144 719H50L145 899L146 1049Q146 1114 140.5 1204.0Q135 1294 96 1356L426 1535Q401 1432 396 1301L556 1461L751 1215L514 935H712L599 719H389L386 437Q386 362 399.0 344.0Q412 326 546 259ZM391 1180Q390 1141 390 1102V935H439L551 1066Q531 1197 447 1227Z" transform="translate(179.05078125, 72) scale(0.03515625, -0.03515625)" /><path d="M535 275 312 31Q239 87 165.0 143.5Q91 200 19 256Q128 352 130 460L134 875H47V954Q183 1149 391 1459L442 1451Q419 1342 401.5 1271.5Q384 1201 380 1096H556V880H377L375 454Q375 379 388.5 369.0Q402 359 535 275Z" transform="translate(204.046875, 72) scale(0.03515625, -0.03515625)" /><path d="M520 890 671 1080 895 975Q884 934 869.5 895.0Q855 856 855 815L841 409Q841 406 841 403Q841 354 871.0 322.5Q901 291 940 275L740 31L522 221L262 31L51 202Q109 271 109 340L116 794Q116 842 42 890L194 1080L417 975Q406 934 391.5 895.0Q377 856 377 815L364 409Q362 361 400 308Q412 293 432 293Q482 293 587 384L594 794Q594 842 520 890Z" transform="translate(224.4375, 72) scale(0.03515625, -0.03515625)" /><path d="M395 934 525 1066Q726 927 797 784L637 570Q610 649 563.5 709.0Q517 769 409 832L376 787L357 446Q354 394 423.0 338.0Q492 282 530 266L364 31L54 272Q110 339 112 410L110 794Q107 842 36 890L187 1080Z" transform="translate(258.85546875, 72) scale(0.03515625, -0.03515625)" /><path d="M1009 1087Q895 1184 777 1222Q770 1128 770.0 985.0Q770 842 801 655L485 514Q565 431 698 389Q771 366 855.5 366.0Q940 366 1029 381L855 15Q564 110 395.0 199.5Q226 289 142.5 410.0Q59 531 42 702Q31 809 31.0 921.5Q31 1034 35 1130L857 1535L1097 1361ZM497 1212Q332 1133 332 922Q332 731 426 587Q490 629 505 754Q511 803 511.0 906.5Q511 1010 497 1212Z" transform="translate(287.3671875, 72) scale(0.03515625, -0.03515625)" /><path d="M80 801Q313 957 467 1084Q544 1051 622 966Q791 785 822 588Q826 565 826 544Q826 478 789 437L457 14L29 225Q97 366 97 469L95 702Q92 774 80 801ZM349 836 346 411Q355 362 415.0 334.5Q475 307 494.5 307.0Q514 307 521 309Q609 329 609 420Q609 441 604 467Q570 632 505.5 716.5Q441 801 349 836Z" transform="translate(325.3359375, 72) scale(0.03515625, -0.03515625)" /><path d="M80 801Q313 957 467 1084Q544 1051 622 966Q791 785 822 588Q826 565 826 544Q826 478 789 437L457 14L29 225Q97 366 97 469L95 702Q92 774 80 801ZM349 836 346 411Q355 362 415.0 334.5Q475 307 494.5 307.0Q514 307 521 309Q609 329 609 420Q609 441 604 467Q570 632 505.5 716.5Q441 801 349 836Z" transform="translate(355.7109375, 72) scale(0.03515625, -0.03515625)" /><path d="M546 259Q374 69 324 15Q150 147 30 240Q139 336 141 444L144 719H50L145 899L146 1049Q146 1114 140.5 1204.0Q135 1294 96 1356L426 1535Q401 1432 396 1301L556 1461L751 1215L514 935H712L599 719H389L386 437Q386 362 399.0 344.0Q412 326 546 259ZM391 1180Q390 1141 390 1102V935H439L551 1066Q531 1197 447 1227Z" transform="translate(386.0859375, 72) scale(0.03515625, -0.03515625)" /></g></svg>
